X:15090
T:Scottish \`a Malochet
R:Schottische
O:France
N:variation of 38
M:C
C:Trad.
K:G
B2d2D2EF|AGFED4|DEFGA2AB\
|1 c2BAB2G2:|2 c2BAG4:|\
|:B2BA GFGA|dcBcA4|DEFG A2AB\
|1c2BAB2G2:|2 c2BAG4:|
